usr/share/icons/big-icons/symbolic/actions/mode3.svg

<svg xmlns="http://www.w3.org/2000/svg" viewBox="0 0 16 16">
<defs id="defs3051">
<style id="current-color-scheme" type="text/css">
.ColorScheme-Text{color:#fcfcfc}.ColorScheme-Highlight{color:#3daee9}
</style>
</defs>
<path d="M2 2v1h5V2zm7 0v1h5V2zM2 5v1h5V5zm7 0v1h5V5zM5 8v1h2V8zm7 3v1h-2v1h2v1l2-1.5z" class="ColorScheme-Text" style="fill:currentColor;fill-opacity:1;stroke:none"/>
<path d="M12 7v1h-2c-1.108 0-2 .892-2 2v1c0 .554-.446 1-1 1H5v1h2c1.108 0 2-.892 2-2v-1c0-.554.446-1 1-1h2v1l2-1.5z" class="ColorScheme-Highlight" style="fill:currentColor;fill-opacity:1;stroke:none"/>
</svg>

<svg xmlns="http://www.w3.org/2000/svg" viewBox="0 0 16 16">
  <defs id="defs3051">
    <style type="text/css" id="current-color-scheme">
      .ColorScheme-Text {
        color:#eff0f1;
      }
      .ColorScheme-Highlight {
        color:#3daee9;
      }
      </style>
  </defs>
  <path 
        style="fill:currentColor;fill-opacity:1;stroke:none"
        d="M 2 2 L 2 3 L 7 3 L 7 2 L 2 2 z M 9 2 L 9 3 L 14 3 L 14 2 L 9 2 z M 2 5 L 2 6 L 7 6 L 7 5 L 2 5 z M 9 5 L 9 6 L 14 6 L 14 5 L 9 5 z M 5 8 L 5 9 L 7 9 L 7 8 L 5 8 z M 12 11 L 12 12 L 10 12 L 10 13 L 12 13 L 12 14 L 14 12.5 L 12 11 z "
        class="ColorScheme-Text"
        />
  <path
        style="fill:currentColor;fill-opacity:1;stroke:none"
        d="m 12,7 0,1 -2,0 C 8.892,8 8,8.892 8,10 l 0,1 c 0,0.554 -0.446,1 -1,1 l -2,0 0,1 2,0 c 1.108,0 2,-0.892 2,-2 L 9,10 C 9,9.446 9.446,9 10,9 l 2,0 0,1 2,-1.5 z"
        class="ColorScheme-Highlight"
      />
</svg>
